X:1
T:Title
%%score { ( 1 4 ) | ( 2 3 ) }
L:1/8
Q:1/4=90
M:6/8
K:Eb
V:1 treble nm="Grand Piano"
V:4 treble 
V:2 bass 
V:3 bass 
V:1
 G2 G A2 F | B3 G3 | E2 E [DF]E[B,DF] | [B,EG]6 | [A,EA]2 [A,EA] [B,DG]2 [B,DF] | [_DB]3 [Cc]3 | %6
w: Thoro~Harris * * *||||||
 z3 .D3 | [E,G,E]6 | [CEA]6 | [B,EG]6 |] %10
w: ||||
V:2
 [E,B,E]2 [E,B,E] [F,B,E]2 [A,B,D] | [G,B,E]3 [E,B,E]3 | [C,C]2 [C,G,] z CB,, | E,6 | %4
 C,2 C, B,,2 A,, | [G,,E,]3 [A,,A,]3 | B,,2 B,, z B,B,, | E,,6 | A,,6 | E,6 |] %10
V:3
 x6 | x6 | z3 .[B,,B,]3 | x6 | x6 | x6 | z3 .B,,3 | x6 | x6 | x6 |] %10
V:4
 x6 | x6 | x6 | x6 | x6 | x6 | [G,B,E]2 [G,B,E] [A,F]G[A,CF] | x6 | x6 | x6 |] %10

